section-11/vk.svg

<svg width="31" height="30" viewBox="0 0 31 30" fill="none" xmlns="http://www.w3.org/2000/svg">
<g clip-path="url(#clip0_465_332)">
<path d="M16.1344 24.375C20.4744 24.375 18.9269 21.6275 19.2619 20.8375C19.2569 20.2475 19.2519 19.68 19.2719 19.335C19.5469 19.4125 20.1956 19.7412 21.5356 21.0437C23.6044 23.1312 24.1331 24.375 25.8044 24.375H28.8806C29.8556 24.375 30.3631 23.9713 30.6169 23.6325C30.8619 23.305 31.1019 22.73 30.8394 21.835C30.1531 19.68 26.1506 15.9587 25.9019 15.5662C25.9394 15.4937 25.9994 15.3975 26.0306 15.3475H26.0281C26.8181 14.3038 29.8331 9.78625 30.2769 7.97875C30.2781 7.97625 30.2794 7.9725 30.2794 7.96875C30.5194 7.14375 30.2994 6.60875 30.0719 6.30625C29.7294 5.85375 29.1844 5.625 28.4481 5.625H25.3719C24.3419 5.625 23.5606 6.14375 23.1656 7.09C22.5044 8.77125 20.6469 12.2288 19.2544 13.4525C19.2119 11.7188 19.2406 10.395 19.2631 9.41125C19.3081 7.4925 19.4531 5.625 17.4619 5.625H12.6269C11.3794 5.625 10.1856 6.9875 11.4781 8.605C12.6081 10.0225 11.8844 10.8125 12.1281 14.745C11.1781 13.7262 9.48812 10.975 8.29313 7.45875C7.95813 6.5075 7.45062 5.62625 6.02187 5.62625H2.94562C1.69812 5.62625 0.953125 6.30625 0.953125 7.445C0.953125 10.0025 6.61438 24.375 16.1344 24.375ZM6.02187 7.50125C6.29312 7.50125 6.32062 7.50125 6.52187 8.0725C7.74563 11.6762 10.4906 17.0088 12.4956 17.0088C14.0019 17.0088 14.0019 15.465 14.0019 14.8837L14.0006 10.2562C13.9181 8.725 13.3606 7.9625 12.9944 7.5L17.3794 7.505C17.3819 7.52625 17.3544 12.6237 17.3919 13.8587C17.3919 15.6125 18.7844 16.6175 20.9581 14.4175C23.2519 11.8288 24.8381 7.95875 24.9019 7.80125C24.9956 7.57625 25.0769 7.5 25.3719 7.5H28.4481H28.4606C28.4594 7.50375 28.4594 7.5075 28.4581 7.51125C28.1769 8.82375 25.4006 13.0063 24.4719 14.305C24.4569 14.325 24.4431 14.3463 24.4294 14.3675C24.0206 15.035 23.6881 15.7725 24.4856 16.81H24.4869C24.5594 16.8975 24.7481 17.1025 25.0231 17.3875C25.8781 18.27 28.8106 21.2875 29.0706 22.4875C28.8981 22.515 28.7106 22.495 25.8044 22.5012C25.1856 22.5012 24.7019 21.5763 22.8556 19.7137C21.1956 18.0988 20.1181 17.4388 19.1369 17.4388C17.2319 17.4388 17.3706 18.985 17.3881 20.855C17.3944 22.8825 17.3819 22.2413 17.3956 22.3688C17.2844 22.4125 16.9656 22.5 16.1344 22.5C8.20313 22.5 3.03813 9.91125 2.83937 7.505C2.90812 7.49875 3.85437 7.5025 6.02187 7.50125Z" fill="black"/>
</g>
<defs>
<clipPath id="clip0_465_332">
<rect width="30" height="30" fill="white" transform="translate(0.953125)"/>
</clipPath>
</defs>
</svg>

<svg xmlns="http://www.w3.org/2000/svg" width="31" height="30" fill="none"><g clip-path="url(#a)"><path fill="#000" d="M16.134 24.375c4.34 0 2.793-2.747 3.128-3.538-.005-.59-.01-1.157.01-1.502.275.078.924.406 2.264 1.709 2.068 2.087 2.597 3.331 4.268 3.331h3.077c.975 0 1.482-.404 1.736-.742.245-.328.485-.903.222-1.798-.686-2.155-4.688-5.876-4.937-6.269.037-.072.097-.168.129-.219h-.003c.79-1.043 3.805-5.56 4.249-7.368a.024.024 0 0 0 .002-.01c.24-.825.02-1.36-.207-1.663-.343-.452-.888-.681-1.624-.681h-3.076c-1.03 0-1.811.519-2.206 1.465-.662 1.681-2.52 5.139-3.912 6.363a80.154 80.154 0 0 1 .01-4.042c.044-1.918.19-3.786-1.802-3.786h-4.835c-1.248 0-2.441 1.362-1.149 2.98 1.13 1.418.406 2.207.65 6.14-.95-1.019-2.64-3.77-3.835-7.286-.335-.951-.842-1.833-2.271-1.833H2.946c-1.248 0-1.993.68-1.993 1.819 0 2.557 5.661 16.93 15.181 16.93ZM6.022 7.501c.271 0 .299 0 .5.571 1.224 3.604 3.969 8.937 5.974 8.937 1.506 0 1.506-1.544 1.506-2.125L14 10.256c-.083-1.531-.64-2.293-1.007-2.756l4.385.005c.003.021-.025 5.119.013 6.354 0 1.754 1.392 2.758 3.566.559 2.294-2.59 3.88-6.46 3.944-6.617.094-.225.175-.301.47-.301h3.089l-.003.011c-.281 1.313-3.057 5.495-3.986 6.794-.015.02-.029.041-.043.063-.408.667-.74 1.405.057 2.442.073.088.262.293.537.578.855.882 3.788 3.9 4.048 5.1-.173.027-.36.007-3.267.013-.618 0-1.102-.925-2.948-2.787-1.66-1.615-2.738-2.275-3.72-2.275-1.904 0-1.765 1.546-1.748 3.416.006 2.027-.006 1.386.008 1.514-.112.044-.43.131-1.262.131C8.204 22.5 3.038 9.911 2.84 7.505c.07-.006 1.015-.002 3.183-.004Z"/></g><defs><clipPath id="a"><path fill="#fff" d="M.953 0h30v30h-30z"/></clipPath></defs></svg>
